actions/24/tools-check-spelling.svg

<?xml version="1.0" encoding="UTF-8"?>
<!-- Created with Inkscape (http://www.inkscape.org/) -->
<svg width="24" height="24" version="1.1" xmlns="http://www.w3.org/2000/svg" xmlns:cc="http://creativecommons.org/ns#" xmlns:dc="http://purl.org/dc/elements/1.1/" xmlns:rdf="http://www.w3.org/1999/02/22-rdf-syntax-ns#" xmlns:xlink="http://www.w3.org/1999/xlink">
	<defs>
		<radialGradient id="b" cx="15.812" cy="11.839" r="8.9238" gradientTransform="matrix(0 1.9276 -1.9006 0 34.501 -11.479)" gradientUnits="userSpaceOnUse">
			<stop stop-color="#ffffff" stop-opacity=".74858" offset="0"/>
			<stop stop-color="#ffffff" stop-opacity=".60511" offset="1"/>
		</radialGradient>
		<radialGradient id="a" cx="14.326" cy="11.424" r="8.8486" gradientTransform="matrix(4.5801e-8 2.8286 -2.3731 3.8426e-8 39.111 -22.522)" gradientUnits="userSpaceOnUse">
			<stop stop-color="#213851" stop-opacity=".9059" offset="0"/>
			<stop stop-color="#27303a" stop-opacity="0" offset="1"/>
		</radialGradient>
	</defs>
	<metadata>
		<rdf:RDF>
			<cc:Work rdf:about="">
				<dc:format>image/svg+xml</dc:format>
				<dc:type rdf:resource="http://purl.org/dc/dcmitype/StillImage"/>
				<dc:title/>
			</cc:Work>
		</rdf:RDF>
	</metadata>
	<g transform="translate(9379.3 -4835.2)" shape-rendering="auto">
		<path d="m-9372.3 4839.2-2 2v8h2v-2h3v2h2v-8l-2-2zm6 0v10h2 3l2-2v-3l-2-2h-3v-3zm-5 2h1l1 1v3h-3v-3zm7 3h2l1 1v1l-1 1h-2zm-9 6.1504-2.4238 2.4258-0.4239 0.4238 0.8477 0.8477 0.4258-0.4239 1.5742-1.5761 2 2 2-2 2 2 2-2 2 2 2-2 1.5762 1.5761 0.4238 0.4239 0.8496-0.8477-0.4238-0.4238-2.4258-2.4258-2 2-2-2-2 2-2-2-2 2z" color="#000000" color-rendering="auto" dominant-baseline="auto" fill="#090d11" fill-opacity=".76621" image-rendering="auto" solid-color="#000000" style="font-feature-settings:normal;font-variant-alternates:normal;font-variant-caps:normal;font-variant-east_asian:normal;font-variant-ligatures:normal;font-variant-numeric:normal;font-variant-position:normal;isolation:auto;mix-blend-mode:normal;paint-order:normal;shape-padding:0;text-decoration-color:#000000;text-decoration-line:none;text-decoration-style:solid;text-indent:0;text-orientation:mixed;text-transform:none;white-space:normal"/>
		<path transform="translate(-9379.3 4835.2)" d="m7 4-2 2v8h2v-2h3v2h2v-8l-2-2h-3zm6 0v10h2 3l2-2v-3l-2-2h-3v-3h-2zm-5 2h1l1 1v3h-3v-3l1-1zm7 3h2l1 1v1l-1 1h-2v-3zm-9 6.1504-2.4238 2.4258-0.42383 0.42383 0.84766 0.84766 0.42578-0.42383 1.5742-1.5762 2 2 2-2 2 2 2-2 2 2 2-2 1.5762 1.5762 0.42383 0.42383 0.84961-0.84766-0.42383-0.42383-2.4258-2.4258-2 2-2-2-2 2-2-2-2 2-2-2z" color="#000000" color-rendering="auto" dominant-baseline="auto" fill="url(#a)" fill-opacity=".75328" image-rendering="auto" solid-color="#000000" style="font-feature-settings:normal;font-variant-alternates:normal;font-variant-caps:normal;font-variant-east_asian:normal;font-variant-ligatures:normal;font-variant-numeric:normal;font-variant-position:normal;isolation:auto;mix-blend-mode:normal;paint-order:normal;shape-padding:0;text-decoration-color:#000000;text-decoration-line:none;text-decoration-style:solid;text-indent:0;text-orientation:mixed;text-transform:none;white-space:normal"/>
		<path transform="translate(-9379.3 4835.2)" d="m6.5938 3-0.28125 0.3125-2 2-0.3125 0.28125v0.40625 8 1h1 2 1v-1-1h1v1 1h1 2 1 2 3 0.40625l0.3125-0.28125 2-2 0.28125-0.28125v-0.4375-3-0.40625l-0.28125-0.28125-2-2-0.3125-0.3125h-0.40625-2v-2-1h-1-2-1v1 0.59375l-1.2812-1.2812-0.3125-0.3125h-0.40625-3-0.40625zm0.40625 1h3l2 2v8h-2v-2h-3v2h-2v-8l2-2zm6 0h2v3h3l2 2v3l-2 2h-3-2v-10zm-5 2-1 1v3h3v-3l-1-1h-1zm0.4375 1h0.15625l0.40625 0.40625v1.5938h-1v-1.5625l0.4375-0.4375zm6.5625 2v3h2l1-1v-1l-1-1h-2zm1 1h0.59375l0.40625 0.40625v0.21875l-0.375 0.375h-0.625v-1zm-10 6.9004-2.4238 2.4258-0.42383 0.42383 0.84766 0.84766 0.42578-0.42383 1.5742-1.5762 2 2 2-2 2 2 2-2 2 2 2-2 1.5762 1.5762 0.42383 0.42383 0.84961-0.84766-0.42383-0.42383-2.4258-2.4258-2 2-2-2-2 2-2-2-2 2-2-2z" color="#000000" color-rendering="auto" dominant-baseline="auto" fill="url(#b)" fill-opacity=".99858" image-rendering="auto" solid-color="#000000" style="font-feature-settings:normal;font-variant-alternates:normal;font-variant-caps:normal;font-variant-east_asian:normal;font-variant-ligatures:normal;font-variant-numeric:normal;font-variant-position:normal;isolation:auto;mix-blend-mode:normal;paint-order:normal;shape-padding:0;text-decoration-color:#000000;text-decoration-line:none;text-decoration-style:solid;text-indent:0;text-orientation:mixed;text-transform:none;white-space:normal"/>
	</g>
</svg>

<?xml version="1.0" encoding="UTF-8" standalone="no"?>
<!-- Created with Inkscape (http://www.inkscape.org/) -->

<svg
   xmlns:dc="http://purl.org/dc/elements/1.1/"
   xmlns:cc="http://creativecommons.org/ns#"
   xmlns:rdf="http://www.w3.org/1999/02/22-rdf-syntax-ns#"
   xmlns:svg="http://www.w3.org/2000/svg"
   xmlns="http://www.w3.org/2000/svg"
   xmlns:sodipodi="http://sodipodi.sourceforge.net/DTD/sodipodi-0.dtd"
   xmlns:inkscape="http://www.inkscape.org/namespaces/inkscape"
   width="24"
   height="24"
   id="svg13094"
   version="1.1"
   inkscape:version="0.48.3.1 r9886"
   sodipodi:docname="tools-check-spelling.svg">
  <sodipodi:namedview
     id="base"
     pagecolor="#ffffff"
     bordercolor="#666666"
     borderopacity="1.0"
     inkscape:pageopacity="0.0"
     inkscape:pageshadow="2"
     inkscape:zoom="32"
     inkscape:cx="14.844222"
     inkscape:cy="12.469993"
     inkscape:document-units="px"
     inkscape:current-layer="layer1"
     showgrid="true"
     inkscape:snap-bbox="true"
     inkscape:bbox-paths="true"
     inkscape:bbox-nodes="true"
     inkscape:snap-bbox-edge-midpoints="true"
     inkscape:snap-bbox-midpoints="true"
     inkscape:object-paths="true"
     inkscape:snap-intersection-paths="true"
     inkscape:object-nodes="true"
     inkscape:snap-smooth-nodes="true"
     inkscape:snap-midpoints="true"
     inkscape:snap-object-midpoints="true"
     inkscape:snap-center="true"
     showguides="false"
     inkscape:guide-bbox="true"
     inkscape:window-width="1920"
     inkscape:window-height="1023"
     inkscape:window-x="-10"
     inkscape:window-y="35"
     inkscape:window-maximized="1"
     inkscape:snap-global="true"
     fit-margin-top="0"
     fit-margin-left="0"
     fit-margin-right="0"
     fit-margin-bottom="0"
     showborder="true"
     inkscape:showpageshadow="false">
    <sodipodi:guide
       orientation="0,1"
       position="-25.000005,930.61286"
       id="guide4700" />
    <sodipodi:guide
       orientation="0,1"
       position="576.71887,328.89388"
       id="guide4702" />
    <sodipodi:guide
       orientation="1,0"
       position="576.71899,489.70395"
       id="guide4706" />
    <sodipodi:guide
       orientation="1,0"
       position="54.999996,930.61286"
       id="guide4708" />
    <sodipodi:guide
       orientation="0,1"
       position="-25.000005,850.61296"
       id="guide4710" />
    <sodipodi:guide
       orientation="0,1"
       position="536.71887,408.8938"
       id="guide4712" />
    <sodipodi:guide
       orientation="1,0"
       position="496.71887,408.8938"
       id="guide4714" />
    <inkscape:grid
       type="xygrid"
       id="grid3216"
       empspacing="5"
       visible="true"
       enabled="true"
       snapvisiblegridlinesonly="true"
       originx="-24.999951px"
       originy="-219.00005px" />
    <sodipodi:guide
       orientation="-0.70710664,0.70710692"
       position="4.0000502,-246.00005"
       id="guide3847" />
    <sodipodi:guide
       orientation="0.70710594,0.70710762"
       position="5.0000502,-245.00005"
       id="guide3849" />
    <sodipodi:guide
       orientation="-0.70710681,0.70710676"
       position="7.0000502,-212.00005"
       id="guide3851" />
  </sodipodi:namedview>
  <defs
     id="defs13096" />
  <metadata
     id="metadata13099">
    <rdf:RDF>
      <cc:Work
         rdf:about="">
        <dc:format>image/svg+xml</dc:format>
        <dc:type
           rdf:resource="http://purl.org/dc/dcmitype/StillImage" />
        <dc:title />
      </cc:Work>
    </rdf:RDF>
  </metadata>
  <g
     transform="translate(9379.308,-4835.1988)"
     id="layer1"
     inkscape:groupmode="layer"
     inkscape:label="Camada 1">
    <path
       sodipodi:nodetypes="ccccccc"
       inkscape:connector-curvature="0"
       id="path3842"
       d="m -9359.308,4853.1988 -2,-2 -2,2 -2,-2 -2,2 -2,-2 -2,2 -2,-2 -2,2"
       style="color:#000000;fill:none;stroke:#EDEFF3;stroke-width:1.20000005;stroke-linecap:square;stroke-miterlimit:4;stroke-opacity:0.758;stroke-dasharray:none;marker:none;visibility:visible;display:inline;overflow:visible;enable-background:accumulate" />
    <path
       style="color:#000000;fill:none;stroke:#485462;stroke-width:1.20000005;stroke-linecap:square;stroke-miterlimit:4;stroke-opacity:0.7;stroke-dasharray:none;marker:none;visibility:visible;display:inline;overflow:visible;enable-background:accumulate"
       d="m -9359.308,4854.9488 -2,-2 -2,2 -2,-2 -2,2 -2,-2 -2,2 -2,-2 -2,2"
       id="path3029"
       inkscape:connector-curvature="0"
       sodipodi:nodetypes="ccccccc" />
    <path
       style="color:#000000;fill:#EDEFF3;fill-opacity:0.758;fill-rule:nonzero;stroke:none;stroke-width:1.20000005;marker:none;visibility:visible;display:inline;overflow:visible;enable-background:accumulate"
       d="m -9374.308,4841.1988 0,8 2,0 0,-2 3,0 0,2 2,0 0,-8 -2,-2 -3,0 z m 8,-2 0,10 2,0 3,0 2,-2 0,-3 -2,-2 -3,0 0,-3 z m -6,3 1,-1 1,0 1,1 0,3 -3,0 z m 8,2 2,0 1,1 0,1 -1,1 -2,0 z"
       id="path3008"
       inkscape:connector-curvature="0"
       sodipodi:nodetypes="ccccccccccccccccccccccccccccccccccc" />
    <path
       style="font-size:medium;font-style:normal;font-variant:normal;font-weight:normal;font-stretch:normal;text-indent:0;text-align:start;text-decoration:none;line-height:normal;letter-spacing:normal;word-spacing:normal;text-transform:none;direction:ltr;block-progression:tb;writing-mode:lr-tb;text-anchor:start;baseline-shift:baseline;color:#000000;fill:#485462;fill-opacity:0.7;fill-rule:nonzero;stroke:none;stroke-width:2;marker:none;visibility:visible;display:inline;overflow:visible;enable-background:accumulate;font-family:Sans;-inkscape-font-specification:Sans"
       d="M 6.59375 3 L 6.3125 3.3125 L 4.3125 5.3125 L 4 5.59375 L 4 6 L 4 14 L 4 15 L 5 15 L 7 15 L 8 15 L 8 14 L 8 13 L 9 13 L 9 14 L 9 15 L 10 15 L 12 15 L 13 15 L 15 15 L 18 15 L 18.40625 15 L 18.71875 14.71875 L 20.71875 12.71875 L 21 12.4375 L 21 12 L 21 9 L 21 8.59375 L 20.71875 8.3125 L 18.71875 6.3125 L 18.40625 6 L 18 6 L 16 6 L 16 4 L 16 3 L 15 3 L 13 3 L 12 3 L 12 4 L 12 4.59375 L 10.71875 3.3125 L 10.40625 3 L 10 3 L 7 3 L 6.59375 3 z M 7 4 L 10 4 L 12 6 L 12 14 L 10 14 L 10 12 L 7 12 L 7 14 L 5 14 L 5 6 L 7 4 z M 13 4 L 15 4 L 15 7 L 18 7 L 20 9 L 20 12 L 18 14 L 15 14 L 13 14 L 13 4 z M 8 6 L 7 7 L 7 10 L 10 10 L 10 7 L 9 6 L 8 6 z M 8.4375 7 L 8.59375 7 L 9 7.40625 L 9 9 L 8 9 L 8 7.4375 L 8.4375 7 z M 15 9 L 15 12 L 17 12 L 18 11 L 18 10 L 17 9 L 15 9 z M 16 10 L 16.59375 10 L 17 10.40625 L 17 10.625 L 16.625 11 L 16 11 L 16 10 z "
       transform="translate(-9379.308,4835.1988)"
       id="path3816" />
  </g>
</svg>
